Reedweeks/img/phone.svg

<svg width="24" height="24" viewBox="0 0 24 24" fill="none" xmlns="http://www.w3.org/2000/svg">
<path fill-rule="evenodd" clip-rule="evenodd" d="M2.99033 4.87254C3.30665 4.34878 5.0495 2.44376 6.29322 2.50127C6.665 2.53208 6.99364 2.75699 7.26067 3.01784C7.87379 3.61656 9.62897 5.88101 9.72859 6.35753C9.97096 7.52621 8.57833 8.1999 9.00454 9.37783C10.0911 12.0366 11.9634 13.9088 14.6233 14.9943C15.8003 15.4205 16.474 14.0279 17.6428 14.2713C18.1183 14.3709 20.3839 16.126 20.9826 16.7391C21.2425 17.0051 21.4684 17.3347 21.4992 17.7065C21.5454 19.0159 19.5222 20.7833 19.1278 21.0092C18.1974 21.6747 16.9834 21.6634 15.5035 20.9753C11.3739 19.2572 4.77426 12.7822 3.02422 8.49669C2.35461 7.02505 2.30839 5.80297 2.99033 4.87254Z" stroke="#3B3943" stroke-width="1.5" stroke-linecap="round" stroke-linejoin="round"/>
</svg>

<svg width="24" height="24" fill="none" xmlns="http://www.w3.org/2000/svg"><path clip-rule="evenodd" d="M2.99 4.873c.317-.524 2.06-2.43 3.303-2.372.372.031.7.256.968.517.613.599 2.368 2.863 2.468 3.34.242 1.168-1.15 1.842-.724 3.02 1.086 2.659 2.958 4.53 5.618 5.616 1.177.427 1.851-.966 3.02-.723.475.1 2.74 1.855 3.34 2.468.26.266.485.596.516.967.046 1.31-1.977 3.077-2.371 3.303-.93.666-2.145.654-3.624-.034-4.13-1.718-10.73-8.193-12.48-12.478-.67-1.472-.716-2.694-.034-3.624Z" stroke="#3B3943" stroke-width="1.5" stroke-linecap="round" stroke-linejoin="round"/></svg>
